images/3247363.svg

<?xml version="1.0" encoding="UTF-8"?>
<svg xmlns="http://www.w3.org/2000/svg" xmlns:xlink="http://www.w3.org/1999/xlink" width="300pt" height="300pt" viewBox="0 0 300 300" version="1.1">
<defs>
<g>
<symbol overflow="visible" id="glyph0-0">
<path style="stroke:none;" d="M 0.453125 1.59375 L 0.453125 -6.34375 L 4.953125 -6.34375 L 4.953125 1.59375 Z M 0.953125 1.09375 L 4.453125 1.09375 L 4.453125 -5.84375 L 0.953125 -5.84375 Z M 0.953125 1.09375 "/>
</symbol>
<symbol overflow="visible" id="glyph0-1">
<path style="stroke:none;" d="M 0.890625 -6.5625 L 2.078125 -6.5625 L 4.984375 -1.078125 L 4.984375 -6.5625 L 5.84375 -6.5625 L 5.84375 0 L 4.65625 0 L 1.75 -5.484375 L 1.75 0 L 0.890625 0 Z M 0.890625 -6.5625 "/>
</symbol>
<symbol overflow="visible" id="glyph0-2">
<path style="stroke:none;" d="M 0.890625 -6.5625 L 1.765625 -6.5625 L 1.765625 -3.875 L 5 -3.875 L 5 -6.5625 L 5.890625 -6.5625 L 5.890625 0 L 5 0 L 5 -3.125 L 1.765625 -3.125 L 1.765625 0 L 0.890625 0 Z M 0.890625 -6.5625 "/>
</symbol>
<symbol overflow="visible" id="glyph0-3">
<path style="stroke:none;" d="M 3.546875 -5.953125 C 2.898438 -5.953125 2.382812 -5.710938 2 -5.234375 C 1.625 -4.753906 1.4375 -4.101562 1.4375 -3.28125 C 1.4375 -2.445312 1.625 -1.789062 2 -1.3125 C 2.382812 -0.832031 2.898438 -0.59375 3.546875 -0.59375 C 4.191406 -0.59375 4.703125 -0.832031 5.078125 -1.3125 C 5.453125 -1.789062 5.640625 -2.445312 5.640625 -3.28125 C 5.640625 -4.101562 5.453125 -4.753906 5.078125 -5.234375 C 4.703125 -5.710938 4.191406 -5.953125 3.546875 -5.953125 Z M 3.546875 -6.6875 C 4.460938 -6.6875 5.195312 -6.375 5.75 -5.75 C 6.300781 -5.132812 6.578125 -4.3125 6.578125 -3.28125 C 6.578125 -2.238281 6.300781 -1.410156 5.75 -0.796875 C 5.195312 -0.179688 4.460938 0.125 3.546875 0.125 C 2.617188 0.125 1.878906 -0.179688 1.328125 -0.796875 C 0.773438 -1.410156 0.5 -2.238281 0.5 -3.28125 C 0.5 -4.3125 0.773438 -5.132812 1.328125 -5.75 C 1.878906 -6.375 2.617188 -6.6875 3.546875 -6.6875 Z M 3.546875 -6.6875 "/>
</symbol>
<symbol overflow="visible" id="glyph0-4">
<path style="stroke:none;" d="M 0.890625 -6.5625 L 4.65625 -6.5625 L 4.65625 -5.8125 L 1.765625 -5.8125 L 1.765625 -3.875 L 4.375 -3.875 L 4.375 -3.140625 L 1.765625 -3.140625 L 1.765625 0 L 0.890625 0 Z M 0.890625 -6.5625 "/>
</symbol>
</g>
</defs>
<g id="surface48401">
<rect x="0" y="0" width="300" height="300" style="fill:rgb(100%,100%,100%);fill-opacity:1;stroke:none;"/>
<path style=" stroke:none;fill-rule:nonzero;fill:rgb(0%,0%,0%);fill-opacity:1;" d="M 149.664062 146.460938 L 136.855469 132.636719 L 132.898438 137.855469 Z M 149.664062 146.460938 "/>
<path style="fill:none;stroke-width:1.2;stroke-linecap:butt;stroke-linejoin:miter;stroke:rgb(0%,0%,0%);stroke-opacity:1;stroke-miterlimit:10;" d="M 149.664062 146.460938 L 147.347656 164.871094 "/>
<path style="fill:none;stroke-width:1.2;stroke-linecap:butt;stroke-linejoin:miter;stroke:rgb(0%,0%,0%);stroke-opacity:1;stroke-miterlimit:10;" d="M 149.664062 146.460938 L 166.765625 139.257812 "/>
<path style="fill:none;stroke-width:1;stroke-linecap:butt;stroke-linejoin:miter;stroke:rgb(0%,0%,0%);stroke-opacity:1;stroke-miterlimit:10;" d="M 147.347656 164.871094 L 147.347656 164.871094 M 148.011719 167.796875 L 148.972656 167.390625 M 148.679688 170.722656 L 150.601562 169.910156 M 149.34375 173.644531 L 152.226562 172.433594 M 150.011719 176.570312 L 153.855469 174.953125 M 150.675781 179.496094 L 155.480469 177.472656 M 151.339844 182.421875 L 157.109375 179.996094 M 151.527344 183.242188 L 157.566406 180.703125 "/>
<path style="fill:none;stroke-width:1.2;stroke-linecap:butt;stroke-linejoin:miter;stroke:rgb(0%,0%,0%);stroke-opacity:1;stroke-miterlimit:10;" d="M 136.136719 179.65625 L 147.347656 164.871094 "/>
<path style="fill:none;stroke-width:1.2;stroke-linecap:butt;stroke-linejoin:miter;stroke:rgb(0%,0%,0%);stroke-opacity:1;stroke-miterlimit:10;" d="M 154.546875 181.972656 L 136.136719 179.65625 "/>
<path style="fill:none;stroke-width:1;stroke-linecap:butt;stroke-linejoin:miter;stroke:rgb(0%,0%,0%);stroke-opacity:1;stroke-miterlimit:10;" d="M 136.136719 179.65625 L 136.136719 179.65625 M 134.765625 182.324219 L 135.761719 182.632812 M 133.394531 184.996094 L 135.386719 185.609375 M 132.023438 187.664062 L 135.011719 188.585938 M 130.652344 190.332031 L 134.640625 191.5625 M 129.285156 193 L 134.265625 194.539062 M 127.914062 195.667969 L 133.890625 197.515625 M 127.527344 196.421875 L 133.785156 198.351562 "/>
<path style="fill:none;stroke-width:1.2;stroke-linecap:butt;stroke-linejoin:miter;stroke:rgb(0%,0%,0%);stroke-opacity:1;stroke-miterlimit:10;" d="M 136.136719 179.65625 L 119.625 171.183594 "/>
<path style="fill:none;stroke-width:1;stroke-linecap:butt;stroke-linejoin:miter;stroke:rgb(0%,0%,0%);stroke-opacity:1;stroke-miterlimit:10;" d="M 119.625 171.183594 L 119.625 171.183594 M 116.863281 172.347656 L 117.425781 173.222656 M 114.097656 173.511719 L 115.226562 175.261719 M 111.332031 174.675781 L 113.027344 177.304688 M 108.566406 175.839844 L 110.828125 179.34375 M 105.800781 177 L 108.628906 181.382812 M 103.035156 178.164062 L 106.425781 183.421875 M 102.257812 178.492188 L 105.808594 183.996094 "/>
<path style="fill:none;stroke-width:1.2;stroke-linecap:butt;stroke-linejoin:miter;stroke:rgb(0%,0%,0%);stroke-opacity:1;stroke-miterlimit:10;" d="M 119.625 171.183594 L 119.167969 161.917969 "/>
<path style="fill:none;stroke-width:1.2;stroke-linecap:butt;stroke-linejoin:miter;stroke:rgb(0%,0%,100%);stroke-opacity:1;stroke-miterlimit:10;" d="M 119.167969 161.917969 L 118.710938 152.648438 "/>
<path style="fill:none;stroke-width:1.2;stroke-linecap:butt;stroke-linejoin:miter;stroke:rgb(0%,0%,0%);stroke-opacity:1;stroke-miterlimit:10;" d="M 104.035156 181.242188 L 87.523438 172.769531 "/>
<path style="fill:none;stroke-width:1.2;stroke-linecap:butt;stroke-linejoin:miter;stroke:rgb(0%,0%,0%);stroke-opacity:1;stroke-miterlimit:10;" d="M 100.390625 184.28125 L 87.183594 177.503906 "/>
<path style="fill:none;stroke-width:1.2;stroke-linecap:butt;stroke-linejoin:miter;stroke:rgb(0%,0%,0%);stroke-opacity:1;stroke-miterlimit:10;" d="M 104.949219 199.777344 L 104.035156 181.242188 "/>
<path style="fill:none;stroke-width:1.2;stroke-linecap:butt;stroke-linejoin:miter;stroke:rgb(0%,0%,0%);stroke-opacity:1;stroke-miterlimit:10;" d="M 87.523438 172.769531 L 71.933594 182.832031 "/>
<path style="fill:none;stroke-width:1.2;stroke-linecap:butt;stroke-linejoin:miter;stroke:rgb(0%,0%,0%);stroke-opacity:1;stroke-miterlimit:10;" d="M 71.933594 182.832031 L 72.847656 201.363281 "/>
<path style="fill:none;stroke-width:1.2;stroke-linecap:butt;stroke-linejoin:miter;stroke:rgb(0%,0%,0%);stroke-opacity:1;stroke-miterlimit:10;" d="M 76.386719 184.46875 L 77.117188 199.296875 "/>
<path style="fill:none;stroke-width:1.2;stroke-linecap:butt;stroke-linejoin:miter;stroke:rgb(0%,0%,0%);stroke-opacity:1;stroke-miterlimit:10;" d="M 72.847656 201.363281 L 89.355469 209.839844 "/>
<path style="fill:none;stroke-width:1.2;stroke-linecap:butt;stroke-linejoin:miter;stroke:rgb(0%,0%,0%);stroke-opacity:1;stroke-miterlimit:10;" d="M 89.355469 209.839844 L 104.949219 199.777344 "/>
<path style="fill:none;stroke-width:1.2;stroke-linecap:butt;stroke-linejoin:miter;stroke:rgb(0%,0%,0%);stroke-opacity:1;stroke-miterlimit:10;" d="M 88.550781 205.164062 L 101.023438 197.113281 "/>
<path style="fill:none;stroke-width:1.2;stroke-linecap:butt;stroke-linejoin:miter;stroke:rgb(0%,0%,100%);stroke-opacity:1;stroke-miterlimit:10;" d="M 118.710938 152.648438 L 110.457031 148.414062 "/>
<path style="fill:none;stroke-width:1.2;stroke-linecap:butt;stroke-linejoin:miter;stroke:rgb(0%,0%,0%);stroke-opacity:1;stroke-miterlimit:10;" d="M 110.457031 148.414062 L 102.203125 144.175781 "/>
<path style=" stroke:none;fill-rule:nonzero;fill:rgb(100%,100%,100%);fill-opacity:1;" d="M 111.710938 147.148438 L 125.710938 147.148438 L 125.710938 158.148438 L 111.710938 158.148438 Z M 111.710938 147.148438 "/>
<g style="fill:rgb(0%,0%,100%);fill-opacity:1;">
  <use xlink:href="#glyph0-1" x="111.710938" y="155.811523"/>
  <use xlink:href="#glyph0-2" x="118.688477" y="155.811523"/>
</g>
<path style="fill:none;stroke-width:1.2;stroke-linecap:butt;stroke-linejoin:miter;stroke:rgb(0%,0%,0%);stroke-opacity:1;stroke-miterlimit:10;" d="M 101.019531 142.34375 L 93.222656 147.371094 "/>
<path style="fill:none;stroke-width:1.2;stroke-linecap:butt;stroke-linejoin:miter;stroke:rgb(100%,0%,0%);stroke-opacity:1;stroke-miterlimit:10;" d="M 93.222656 147.371094 L 85.425781 152.402344 "/>
<path style="fill:none;stroke-width:1.2;stroke-linecap:butt;stroke-linejoin:miter;stroke:rgb(0%,0%,0%);stroke-opacity:1;stroke-miterlimit:10;" d="M 103.386719 146.011719 L 95.589844 151.042969 "/>
<path style="fill:none;stroke-width:1.2;stroke-linecap:butt;stroke-linejoin:miter;stroke:rgb(100%,0%,0%);stroke-opacity:1;stroke-miterlimit:10;" d="M 95.589844 151.042969 L 87.792969 156.070312 "/>
<path style="fill:none;stroke-width:1.2;stroke-linecap:butt;stroke-linejoin:miter;stroke:rgb(0%,0%,0%);stroke-opacity:1;stroke-miterlimit:10;" d="M 102.203125 144.175781 L 101.742188 134.910156 "/>
<path style="fill:none;stroke-width:1.2;stroke-linecap:butt;stroke-linejoin:miter;stroke:rgb(100%,0%,0%);stroke-opacity:1;stroke-miterlimit:10;" d="M 101.742188 134.910156 L 101.285156 125.644531 "/>
<path style=" stroke:none;fill-rule:nonzero;fill:rgb(100%,100%,100%);fill-opacity:1;" d="M 78.609375 148.738281 L 86.609375 148.738281 L 86.609375 159.738281 L 78.609375 159.738281 Z M 78.609375 148.738281 "/>
<g style="fill:rgb(100%,0%,0%);fill-opacity:1;">
  <use xlink:href="#glyph0-3" x="78.609375" y="157.401367"/>
</g>
<path style="fill:none;stroke-width:1.2;stroke-linecap:butt;stroke-linejoin:miter;stroke:rgb(100%,0%,0%);stroke-opacity:1;stroke-miterlimit:10;" d="M 101.285156 125.644531 L 93.03125 121.40625 "/>
<path style="fill:none;stroke-width:1.2;stroke-linecap:butt;stroke-linejoin:miter;stroke:rgb(0%,0%,0%);stroke-opacity:1;stroke-miterlimit:10;" d="M 93.03125 121.40625 L 84.777344 117.167969 "/>
<path style=" stroke:none;fill-rule:nonzero;fill:rgb(100%,100%,100%);fill-opacity:1;" d="M 97.285156 120.144531 L 105.285156 120.144531 L 105.285156 131.144531 L 97.285156 131.144531 Z M 97.285156 120.144531 "/>
<g style="fill:rgb(100%,0%,0%);fill-opacity:1;">
  <use xlink:href="#glyph0-3" x="97.285156" y="128.807617"/>
</g>
<path style="fill:none;stroke-width:1.2;stroke-linecap:butt;stroke-linejoin:miter;stroke:rgb(0%,0%,0%);stroke-opacity:1;stroke-miterlimit:10;" d="M 84.777344 117.167969 L 83.859375 98.636719 "/>
<path style="fill:none;stroke-width:1.2;stroke-linecap:butt;stroke-linejoin:miter;stroke:rgb(0%,0%,0%);stroke-opacity:1;stroke-miterlimit:10;" d="M 80.324219 115.53125 L 79.589844 100.703125 "/>
<path style="fill:none;stroke-width:1.2;stroke-linecap:butt;stroke-linejoin:miter;stroke:rgb(0%,0%,0%);stroke-opacity:1;stroke-miterlimit:10;" d="M 69.183594 127.230469 L 84.777344 117.167969 "/>
<path style="fill:none;stroke-width:1.2;stroke-linecap:butt;stroke-linejoin:miter;stroke:rgb(0%,0%,0%);stroke-opacity:1;stroke-miterlimit:10;" d="M 83.859375 98.636719 L 67.351562 90.160156 "/>
<path style="fill:none;stroke-width:1.2;stroke-linecap:butt;stroke-linejoin:miter;stroke:rgb(0%,0%,0%);stroke-opacity:1;stroke-miterlimit:10;" d="M 67.351562 90.160156 L 51.757812 100.222656 "/>
<path style="fill:none;stroke-width:1.2;stroke-linecap:butt;stroke-linejoin:miter;stroke:rgb(0%,0%,0%);stroke-opacity:1;stroke-miterlimit:10;" d="M 68.160156 94.835938 L 55.683594 102.886719 "/>
<path style="fill:none;stroke-width:1.2;stroke-linecap:butt;stroke-linejoin:miter;stroke:rgb(0%,0%,0%);stroke-opacity:1;stroke-miterlimit:10;" d="M 51.757812 100.222656 L 52.675781 118.757812 "/>
<path style="fill:none;stroke-width:1.2;stroke-linecap:butt;stroke-linejoin:miter;stroke:rgb(0%,0%,0%);stroke-opacity:1;stroke-miterlimit:10;" d="M 51.757812 100.222656 L 43.503906 95.984375 "/>
<path style="fill:none;stroke-width:1.2;stroke-linecap:butt;stroke-linejoin:miter;stroke:rgb(20%,80%,80%);stroke-opacity:1;stroke-miterlimit:10;" d="M 43.503906 95.984375 L 35.25 91.75 "/>
<path style="fill:none;stroke-width:1.2;stroke-linecap:butt;stroke-linejoin:miter;stroke:rgb(0%,0%,0%);stroke-opacity:1;stroke-miterlimit:10;" d="M 52.675781 118.757812 L 69.183594 127.230469 "/>
<path style="fill:none;stroke-width:1.2;stroke-linecap:butt;stroke-linejoin:miter;stroke:rgb(0%,0%,0%);stroke-opacity:1;stroke-miterlimit:10;" d="M 56.320312 115.71875 L 69.527344 122.496094 "/>
<path style=" stroke:none;fill-rule:nonzero;fill:rgb(100%,100%,100%);fill-opacity:1;" d="M 29.25 86.25 L 35.25 86.25 L 35.25 97.25 L 29.25 97.25 Z M 29.25 86.25 "/>
<g style="fill:rgb(20%,80%,80%);fill-opacity:1;">
  <use xlink:href="#glyph0-4" x="29.25" y="94.913086"/>
</g>
<path style="fill:none;stroke-width:1.2;stroke-linecap:butt;stroke-linejoin:miter;stroke:rgb(0%,0%,0%);stroke-opacity:1;stroke-miterlimit:10;" d="M 168.933594 139.53125 L 170.089844 130.328125 "/>
<path style="fill:none;stroke-width:1.2;stroke-linecap:butt;stroke-linejoin:miter;stroke:rgb(100%,0%,0%);stroke-opacity:1;stroke-miterlimit:10;" d="M 170.089844 130.328125 L 171.246094 121.121094 "/>
<path style="fill:none;stroke-width:1.2;stroke-linecap:butt;stroke-linejoin:miter;stroke:rgb(0%,0%,0%);stroke-opacity:1;stroke-miterlimit:10;" d="M 164.601562 138.988281 L 165.757812 129.78125 "/>
<path style="fill:none;stroke-width:1.2;stroke-linecap:butt;stroke-linejoin:miter;stroke:rgb(100%,0%,0%);stroke-opacity:1;stroke-miterlimit:10;" d="M 165.757812 129.78125 L 166.914062 120.574219 "/>
<path style="fill:none;stroke-width:1.2;stroke-linecap:butt;stroke-linejoin:miter;stroke:rgb(0%,0%,0%);stroke-opacity:1;stroke-miterlimit:10;" d="M 166.765625 139.257812 L 174.160156 144.863281 "/>
<path style="fill:none;stroke-width:1.2;stroke-linecap:butt;stroke-linejoin:miter;stroke:rgb(0%,0%,100%);stroke-opacity:1;stroke-miterlimit:10;" d="M 174.160156 144.863281 L 181.550781 150.472656 "/>
<path style=" stroke:none;fill-rule:nonzero;fill:rgb(100%,100%,100%);fill-opacity:1;" d="M 165.082031 115.347656 L 173.082031 115.347656 L 173.082031 126.347656 L 165.082031 126.347656 Z M 165.082031 115.347656 "/>
<g style="fill:rgb(100%,0%,0%);fill-opacity:1;">
  <use xlink:href="#glyph0-3" x="165.082031" y="124.010742"/>
</g>
<path style="fill:none;stroke-width:1.2;stroke-linecap:butt;stroke-linejoin:miter;stroke:rgb(0%,0%,100%);stroke-opacity:1;stroke-miterlimit:10;" d="M 181.550781 150.472656 L 190.105469 146.871094 "/>
<path style="fill:none;stroke-width:1.2;stroke-linecap:butt;stroke-linejoin:miter;stroke:rgb(0%,0%,0%);stroke-opacity:1;stroke-miterlimit:10;" d="M 190.105469 146.871094 L 198.65625 143.269531 "/>
<path style=" stroke:none;fill-rule:nonzero;fill:rgb(100%,100%,100%);fill-opacity:1;" d="M 174.550781 144.972656 L 188.550781 144.972656 L 188.550781 155.972656 L 174.550781 155.972656 Z M 174.550781 144.972656 "/>
<g style="fill:rgb(0%,0%,100%);fill-opacity:1;">
  <use xlink:href="#glyph0-1" x="174.550781" y="153.635742"/>
  <use xlink:href="#glyph0-2" x="181.52832" y="153.635742"/>
</g>
<path style="fill:none;stroke-width:1.2;stroke-linecap:butt;stroke-linejoin:miter;stroke:rgb(0%,0%,0%);stroke-opacity:1;stroke-miterlimit:10;" d="M 198.65625 143.269531 L 213.441406 154.484375 "/>
<path style="fill:none;stroke-width:1.2;stroke-linecap:butt;stroke-linejoin:miter;stroke:rgb(0%,0%,0%);stroke-opacity:1;stroke-miterlimit:10;" d="M 202.773438 140.914062 L 214.601562 149.882812 "/>
<path style="fill:none;stroke-width:1.2;stroke-linecap:butt;stroke-linejoin:miter;stroke:rgb(0%,0%,0%);stroke-opacity:1;stroke-miterlimit:10;" d="M 200.972656 124.859375 L 198.65625 143.269531 "/>
<path style="fill:none;stroke-width:1.2;stroke-linecap:butt;stroke-linejoin:miter;stroke:rgb(0%,0%,0%);stroke-opacity:1;stroke-miterlimit:10;" d="M 213.441406 154.484375 L 230.542969 147.28125 "/>
<path style="fill:none;stroke-width:1.2;stroke-linecap:butt;stroke-linejoin:miter;stroke:rgb(0%,0%,0%);stroke-opacity:1;stroke-miterlimit:10;" d="M 230.542969 147.28125 L 245.332031 158.496094 "/>
<path style="fill:none;stroke-width:1.2;stroke-linecap:butt;stroke-linejoin:miter;stroke:rgb(0%,0%,0%);stroke-opacity:1;stroke-miterlimit:10;" d="M 234.660156 144.925781 L 246.492188 153.894531 "/>
<path style="fill:none;stroke-width:1.2;stroke-linecap:butt;stroke-linejoin:miter;stroke:rgb(0%,0%,0%);stroke-opacity:1;stroke-miterlimit:10;" d="M 232.859375 128.871094 L 230.542969 147.28125 "/>
<path style="fill:none;stroke-width:1.2;stroke-linecap:butt;stroke-linejoin:miter;stroke:rgb(0%,0%,0%);stroke-opacity:1;stroke-miterlimit:10;" d="M 245.332031 158.496094 L 262.433594 151.292969 "/>
<path style="fill:none;stroke-width:1.2;stroke-linecap:butt;stroke-linejoin:miter;stroke:rgb(0%,0%,0%);stroke-opacity:1;stroke-miterlimit:10;" d="M 262.433594 151.292969 L 264.75 132.882812 "/>
<path style="fill:none;stroke-width:1.2;stroke-linecap:butt;stroke-linejoin:miter;stroke:rgb(0%,0%,0%);stroke-opacity:1;stroke-miterlimit:10;" d="M 258.332031 148.910156 L 260.1875 134.179688 "/>
<path style="fill:none;stroke-width:1.2;stroke-linecap:butt;stroke-linejoin:miter;stroke:rgb(0%,0%,0%);stroke-opacity:1;stroke-miterlimit:10;" d="M 264.75 132.882812 L 249.964844 121.671875 "/>
<path style="fill:none;stroke-width:1.2;stroke-linecap:butt;stroke-linejoin:miter;stroke:rgb(0%,0%,0%);stroke-opacity:1;stroke-miterlimit:10;" d="M 249.964844 121.671875 L 232.859375 128.871094 "/>
<path style="fill:none;stroke-width:1.2;stroke-linecap:butt;stroke-linejoin:miter;stroke:rgb(0%,0%,0%);stroke-opacity:1;stroke-miterlimit:10;" d="M 249.945312 126.414062 L 236.265625 132.175781 "/>
<path style="fill:none;stroke-width:1.2;stroke-linecap:butt;stroke-linejoin:miter;stroke:rgb(0%,0%,0%);stroke-opacity:1;stroke-miterlimit:10;" d="M 232.859375 128.871094 L 218.074219 117.660156 "/>
<path style="fill:none;stroke-width:1.2;stroke-linecap:butt;stroke-linejoin:miter;stroke:rgb(0%,0%,0%);stroke-opacity:1;stroke-miterlimit:10;" d="M 218.074219 117.660156 L 200.972656 124.859375 "/>
<path style="fill:none;stroke-width:1.2;stroke-linecap:butt;stroke-linejoin:miter;stroke:rgb(0%,0%,0%);stroke-opacity:1;stroke-miterlimit:10;" d="M 218.058594 122.402344 L 204.375 128.164062 "/>
</g>
</svg>

<svg xmlns="http://www.w3.org/2000/svg" xmlns:xlink="http://www.w3.org/1999/xlink" width="300pt" height="300pt" viewBox="0 0 300 300"><defs><symbol overflow="visible"><path d="M.453 1.594v-7.938h4.5v7.938zm.5-.5h3.5v-6.938h-3.5zm0 0"/></symbol><symbol overflow="visible" id="a"><path d="M.89-6.563H2.08l2.906 5.485v-5.484h.86V0H4.656L1.75-5.484V0H.89zm0 0"/></symbol><symbol overflow="visible" id="b"><path d="M.89-6.563h.876v2.688H5v-2.688h.89V0H5v-3.125H1.766V0H.89zm0 0"/></symbol><symbol overflow="visible" id="c"><path d="M3.547-5.953c-.65 0-1.164.242-1.547.72-.375.48-.563 1.13-.563 1.952 0 .835.188 1.49.563 1.967.383.48.898.72 1.547.72.644 0 1.156-.24 1.53-.72.376-.476.564-1.132.564-1.968 0-.822-.187-1.474-.562-1.954-.375-.477-.887-.72-1.53-.72zm0-.734c.914 0 1.648.312 2.203.937.55.617.828 1.438.828 2.47 0 1.042-.277 1.87-.828 2.483-.555.617-1.29.922-2.203.922-.93 0-1.668-.305-2.22-.922C.774-1.41.5-2.237.5-3.28c0-1.033.273-1.853.828-2.47.55-.625 1.29-.938 2.22-.938zm0 0"/></symbol><symbol overflow="visible" id="d"><path d="M.89-6.563h3.766v.75h-2.89v1.938h2.61v.734h-2.61V0H.89zm0 0"/></symbol></defs><g><path fill="#fff" d="M0 0h300v300H0z"/><path d="M149.664 146.46l-12.81-13.823-3.956 5.218zm0 0"/><path d="M149.664 146.46l-2.316 18.41M149.664 146.46l17.102-7.202" stroke-width="1.2" stroke="#000" stroke-miterlimit="10" fill="none"/><path d="M147.348 164.87m.664 2.927l.96-.406m-.292 3.333l1.922-.813m-1.258 3.735l2.883-1.21m-2.215 4.135l3.843-1.617m-3.18 4.543l4.805-2.023m-4.14 4.95l5.77-2.427m-5.583 3.246l6.04-2.54" stroke="#000" stroke-miterlimit="10" fill="none"/><path d="M136.137 179.656l11.21-14.785M154.547 181.973l-18.41-2.317" stroke-width="1.2" stroke="#000" stroke-miterlimit="10" fill="none"/><path d="M136.137 179.656m-1.37 2.668l.995.31m-2.367 2.362l1.992.613m-3.364 2.054l2.99.922m-4.36 1.746l3.988 1.23M129.286 193l4.98 1.54m-6.35 1.128l5.976 1.848m-6.363-1.094l6.258 1.93" stroke="#000" stroke-miterlimit="10" fill="none"/><path d="M136.137 179.656l-16.512-8.472" stroke-width="1.2" stroke="#000" stroke-miterlimit="10" fill="none"/><path d="M119.625 171.184m-2.762 1.164l.563.875m-3.328.29l1.13 1.75m-3.896-.587l1.695 2.63m-4.46-1.466l2.26 3.504M105.802 177l2.83 4.383m-5.595-3.22l3.39 5.26m-4.167-4.93l3.55 5.503" stroke="#000" stroke-miterlimit="10" fill="none"/><path d="M119.625 171.184l-.457-9.266" stroke-width="1.2" stroke="#000" stroke-miterlimit="10" fill="none"/><path d="M119.168 161.918l-.457-9.27" stroke-width="1.2" stroke="#00f" stroke-miterlimit="10" fill="none"/><path d="M104.035 181.242l-16.512-8.472M100.39 184.28l-13.206-6.776M104.95 199.777l-.915-18.535M87.523 172.77l-15.59 10.062M71.934 182.832l.914 18.53M76.387 184.47l.73 14.827M72.848 201.363l16.507 8.477M89.355 209.84l15.594-10.063M88.55 205.164l12.473-8.05" stroke-width="1.2" stroke="#000" stroke-miterlimit="10" fill="none"/><path d="M118.71 152.648l-8.253-4.234" stroke-width="1.2" stroke="#00f" stroke-miterlimit="10" fill="none"/><path d="M110.457 148.414l-8.254-4.238" stroke-width="1.2" stroke="#000" stroke-miterlimit="10" fill="none"/><path d="M111.71 147.148h14v11h-14zm0 0" fill="#fff"/><g fill="#00f"><use xlink:href="#a" x="111.711" y="155.812"/><use xlink:href="#b" x="118.688" y="155.812"/></g><path d="M101.02 142.344l-7.797 5.027" stroke-width="1.2" stroke="#000" stroke-miterlimit="10" fill="none"/><path d="M93.223 147.37l-7.797 5.032" stroke-width="1.2" stroke="#f00" stroke-miterlimit="10" fill="none"/><path d="M103.387 146.012l-7.797 5.03" stroke-width="1.2" stroke="#000" stroke-miterlimit="10" fill="none"/><path d="M95.59 151.043l-7.797 5.027" stroke-width="1.2" stroke="#f00" stroke-miterlimit="10" fill="none"/><path d="M102.203 144.176l-.46-9.266" stroke-width="1.2" stroke="#000" stroke-miterlimit="10" fill="none"/><path d="M101.742 134.91l-.457-9.265" stroke-width="1.2" stroke="#f00" stroke-miterlimit="10" fill="none"/><path d="M78.61 148.738h8v11h-8zm0 0" fill="#fff"/><use xlink:href="#c" x="78.609" y="157.401" fill="#f00"/><path d="M101.285 125.645l-8.254-4.24" stroke-width="1.2" stroke="#f00" stroke-miterlimit="10" fill="none"/><path d="M93.03 121.406l-8.253-4.238" stroke-width="1.2" stroke="#000" stroke-miterlimit="10" fill="none"/><path d="M97.285 120.145h8v11h-8zm0 0" fill="#fff"/><use xlink:href="#c" x="97.285" y="128.808" fill="#f00"/><path d="M84.777 117.168l-.918-18.53M80.324 115.53l-.734-14.827M69.184 127.23l15.593-10.062M83.86 98.637L67.35 90.16M67.352 90.16l-15.594 10.063M68.16 94.836l-12.476 8.05M51.758 100.223l.918 18.535M51.758 100.223l-8.254-4.24" stroke-width="1.2" stroke="#000" stroke-miterlimit="10" fill="none"/><path d="M43.504 95.984L35.25 91.75" stroke-width="1.2" stroke="#3cc" stroke-miterlimit="10" fill="none"/><path d="M52.676 118.758l16.508 8.472M56.32 115.72l13.207 6.776" stroke-width="1.2" stroke="#000" stroke-miterlimit="10" fill="none"/><path d="M29.25 86.25h6v11h-6zm0 0" fill="#fff"/><use xlink:href="#d" x="29.25" y="94.913" fill="#3cc"/><path d="M168.934 139.53l1.156-9.202" stroke-width="1.2" stroke="#000" stroke-miterlimit="10" fill="none"/><path d="M170.09 130.328l1.156-9.207" stroke-width="1.2" stroke="#f00" stroke-miterlimit="10" fill="none"/><path d="M164.602 138.988l1.156-9.207" stroke-width="1.2" stroke="#000" stroke-miterlimit="10" fill="none"/><path d="M165.758 129.78l1.156-9.206" stroke-width="1.2" stroke="#f00" stroke-miterlimit="10" fill="none"/><path d="M166.766 139.258l7.394 5.605" stroke-width="1.2" stroke="#000" stroke-miterlimit="10" fill="none"/><path d="M174.16 144.863l7.39 5.61" stroke-width="1.2" stroke="#00f" stroke-miterlimit="10" fill="none"/><path d="M165.082 115.348h8v11h-8zm0 0" fill="#fff"/><use xlink:href="#c" x="165.082" y="124.011" fill="#f00"/><path d="M181.55 150.473l8.555-3.602" stroke-width="1.2" stroke="#00f" stroke-miterlimit="10" fill="none"/><path d="M190.105 146.87l8.55-3.6" stroke-width="1.2" stroke="#000" stroke-miterlimit="10" fill="none"/><path d="M174.55 144.973h14v11h-14zm0 0" fill="#fff"/><g fill="#00f"><use xlink:href="#a" x="174.551" y="153.636"/><use xlink:href="#b" x="181.528" y="153.636"/></g><path d="M198.656 143.27l14.785 11.214M202.773 140.914l11.83 8.97M200.973 124.86l-2.317 18.41M213.44 154.484l17.103-7.203M230.543 147.28l14.79 11.216M234.66 144.926l11.832 8.97M232.86 128.87l-2.317 18.41M245.332 158.496l17.102-7.203M262.434 151.293l2.316-18.41M258.332 148.91l1.856-14.73M264.75 132.883l-14.785-11.21M249.965 121.672l-17.106 7.2M249.945 126.414l-13.68 5.762M232.86 128.87l-14.786-11.21M218.074 117.66l-17.1 7.2M218.06 122.402l-13.685 5.762" stroke-width="1.2" stroke="#000" stroke-miterlimit="10" fill="none"/></g></svg>
